!!!!SEGMENT: pl-wn--sd-xvi-qu-273--013_gomolka-mikolaj--dokad-mie-chcesz-zapomniec-dokad-swieta-swoje.krn
!!!cenid: 15xx:218
!!!COM: Gomółka, Mikołaj
!!!COM-rismid: pe30013343
!!!CDT: ~1535->1591/04/30
!!!CNT: Polish
!!!GTL: Melodiae na psalterz polski
!!!OTL: XIII. Dokąd mię chcesz zapomnieć? Dokąd świętą swoje
!!!PDT: 1580
!!!AGN: Sacred
!!!SMS-siglum: PL-Wn
!!!SMS-shelfmark: SD XVI.Qu.273
!!!SMS-shelfwork: 013 G
!!!NIFC-rismid:
!!!ONB-nifc: Melodiae na psalterz polski
!!!ONB: There are two page 16s in the volume, this work starts at 16v and ends on the second 16r.
**kern	**text	**text	**kern	**text	**text	**kern	**text	**text	**kern	**text	**text
*part4	*part4	*part4	*part3	*part3	*part3	*part2	*part2	*part2	*part1	*part1	*part1
*staff4	*staff4	*staff4	*staff3	*staff3	*staff3	*staff2	*staff2	*staff2	*staff1	*staff1	*staff1
*clefF4	*	*	*clefC4	*	*	*clefC3	*	*	*clefC1	*	*
*k[]	*	*	*k[]	*	*	*k[]	*	*	*k[]	*	*
*d:	*	*	*d:	*	*	*d:	*	*	*d:	*	*
*M4/4	*	*	*M4/4	*	*	*M4/4	*	*	*M4/4	*	*
*met(C|)	*	*	*met(C|)	*	*	*met(C|)	*	*	*met(C|)	*	*
*>[A,A,B]	*>[A,A,B]	*>[A,A,B]	*>[A,A,B]	*>[A,A,B]	*>[A,A,B]	*>[A,A,B]	*>[A,A,B]	*>[A,A,B]	*>[A,A,B]	*>[A,A,B]	*>[A,A,B]
*>A	*>A	*>A	*>A	*>A	*>A	*>A	*>A	*>A	*>A	*>A	*>A
*xywh-#48:1291,5508,5055,1288	*	*	*xywh-#48:1262,4259,5055,1259	*	*	*xywh-#48:1223,2912,5094,1298	*	*	*xywh-#48:1281,1223,5036,1698	*	*
=1-	=1-	=1-	=1-	=1-	=1-	=1-	=1-	=1-	=1-	=1-	=1-
1D	Do-	Twarz	1d	Do-	Twarz	1f	Do-	Twarz	1a	Do-	Twarz
2A	-kąd	prze-	2c#X	-kąd	prze-	2e	-kąd	prze-	2a	-kąd	prze-
2D/	mię	(-de	2d	mię	-de-	2f	m(ię)	(-de	2a	mię	-de-
=2-	=2-	=2-	=2-	=2-	=2-	=2-	=2-	=2-	=2-	=2-	=2-
2A	ch(cesz)	mną)	2e	chc(esz)	(-mną)	2a	ch(cesz)	-mną)	2cc	chc(esz)	(-mną)
2F	zá-	kr(yć)	4f	zá-	kryć	2a	zá-	kryć	2cc	zá-	kryć
.	.	.	4e	.	bę	.	.	.	.	.	.
1G	-pom-	bę-	4d	-pom-	.	2.g	-pom-	bę-	1b-X	-pom-	bę-
.	.	.	4c	.	.	.	.	.	.	.	.
.	.	.	2d	.	.	.	.	.	.	.	.
.	.	.	.	.	.	4f	.	.	.	.	.
=3-	=3-	=3-	=3-	=3-	=3-	=3-	=3-	=3-	=3-	=3-	=3-
2A	(-niéć;)	-d(ziesz)	2c	-niéć;	dzi(esz)	2e	-ni(éć;)	-dziesz	2a	-n(iéć;)	(-dziesz)
2D/	do-	do-	2d	do-	do-	2f	do-	do-	2a	do-	do-
1C	-k(ąd)	-kąd	1e	-kąd	-kąd	1g	-kąd	-kąd	1cc	-kąd	-kąd
=4-	=4-	=4-	=4-	=4-	=4-	=4-	=4-	=4-	=4-	=4-	=4-
2D/	świę-	du-	2.d	świę-	du-	2f	świę-	du-	2b	św(ę-	du-
2D/	(-tą)	-szę	.	.	.	2f	(-tą)	(-szę)	1a	-tą)	-szę
.	.	.	4c	.	-szę	.	.	.	.	.	.
1E	swo-	mo-	4B	(-tą)	.	2.e	swo-	mo-	.	.	.
.	.	.	4A	.	.	.	.	.	.	.	.
.	.	.	2B	swo-	mo-	.	.	.	2g/	swo-	mo-
.	.	.	.	.	.	4d	.	.	.	.	.
=5-	=5-	=5-	=5-	=5-	=5-	=5-	=5-	=5-	=5-	=5-	=5-
1AA	-ię	-ię	1A	-ię	-ię	1c#X	-ię	-ię	1a	-ie	-ię
=:|!-	=:|!-	=:|!-	=:|!-	=:|!-	=:|!-	=:|!-	=:|!-	=:|!-	=:|!-	=:|!-	=:|!-
*>B	*>B	*>B	*>B	*>B	*>B	*>B	*>B	*>B	*>B	*>B	*>B
1D	Frá-	.	1A	Frá-	.	1d	Frá-	.	1f#X	Frá-	.
=6-	=6-	=6-	=6-	=6-	=6-	=6-	=6-	=6-	=6-	=6-	=6-
2GG	-sun-	.	2B	-sun-	.	2d	-sun-	.	1g	-sun-	.
2C	-ki	.	2c	-ki	.	2e	-ki	.	.	.	.
2BB-X	tra-	.	2.d	tra-	.	2.f	tra-	.	2b-X	-ki	.
2FF	-pić	.	.	.	.	.	.	.	2a	tra-	.
.	.	.	4c	.	.	4e	.	.	.	.	.
=7-	=7-	=7-	=7-	=7-	=7-	=7-	=7-	=7-	=7-	=7-	=7-
1GG	bę-	.	4B	(-pić)	.	4d	(-pić)	.	2g/	-pić	.
.	.	.	4A	.	.	4c	.	.	.	.	.
.	.	.	2B	bę-	.	2d	bę-	.	2g/	bę-	.
*xywh-#49:579,5146,5012,1381	*	*	*xywh-#49:569,3794,5070,1439	*	*	*xywh-#49:589,2558,5070,1361	*	*	*xywh-#49:637,1109,4983,1535	*	*
!!LO:PB:g=original
2D/	-dą,	.	2A	-dą,	.	2d	-dą:	.	2f#X	-dą,	.
2D/	oy-	.	2f	oy-	.	2d	oy-	.	2a	oy-	.
=8-	=8-	=8-	=8-	=8-	=8-	=8-	=8-	=8-	=8-	=8-	=8-
2GG	-cze	.	4g	-cze	.	2d	-cze	.	4b	-cze	.
.	.	.	4f	.	.	.	.	.	4cc	.	.
2BB	li-	.	4e	dob-	.	2d	li-	.	2dd	do-	.
.	.	.	4d	.	.	.	.	.	.	.	.
2AA	-to-	.	2e	-rot-	.	2.a	-to-	.	2dd	-bro-	.
2AA	-śći-	.	2e	-li-	.	.	.	.	2cc	-tli-	.
.	.	.	.	.	.	4g	-ści-	.	.	.	.
=9-	=9-	=9-	=9-	=9-	=9-	=9-	=9-	=9-	=9-	=9-	=9-
2D/	-wy?	.	2d	-wy,	.	2f#X	-wy?	.	2dd	-wy,	.
!	!	!	!	!	!	!LO:TX:a:t=S:sic:na pewno dźwięk f:problem	!	!	!	!	!
2D/	Do-	.	2d	Do-	.	2f	Do-	.	2a	do-	.
2A	-kąd	.	2c#X	-kąd	.	2e	-tąd	.	2a	-kąd	.
2D/	mię	.	2d	mię	.	2f	mię	.	2a	mię	.
=10-	=10-	=10-	=10-	=10-	=10-	=10-	=10-	=10-	=10-	=10-	=10-
2A	dep-	.	2e	dep-	.	2a	dep-	.	2cc	dep-	.
2F	-táć	.	4f	-táć	.	2a	-táć	.	2cc	(-táć)	.
.	.	.	4e	.	.	.	.	.	.	.	.
1G	bę-	.	4d	.	.	2.g	bę-	.	1b-X	bę-	.
.	.	.	4c	.	.	.	.	.	.	.	.
.	.	.	2d	bę-	.	.	.	.	.	.	.
.	.	.	.	.	.	4fn	.	.	.	.	.
=11-	=11-	=11-	=11-	=11-	=11-	=11-	=11-	=11-	=11-	=11-	=11-
2A	-dźie	.	2.c	-dźie	.	2.e	-dźie	.	2.a	-dźie	.
2AA	.	.	.	.	.	.	.	.	.	.	.
.	.	.	4B	.	.	4d	.	.	4g	.	.
2D/	czło-	.	2A/	czło-	.	2d	czło-	.	2f	czło-	.
2E	(-wiek)	.	4G	-wiek	.	2B	-wiek	.	4e	-wiek	.
.	.	.	4A/	.	.	.	.	.	4f	.	.
=12-	=12-	=12-	=12-	=12-	=12-	=12-	=12-	=12-	=12-	=12-	=12-
2C	zazd-	.	4G	zazd-	.	4c/	zazd-	.	4e	zazd-	.
.	.	.	4F	.	.	4B	.	.	4d	.	.
2D/	-roś-	.	4E	-roś-	.	4A	-roś-	.	1d	-(r)oś-	.
.	.	.	4D	.	.	4G	.	.	.	.	.
1AA	-ći-	.	1E	-ći-	.	1A	-ći-	.	.	.	.
.	.	.	.	.	.	.	.	.	2c	-ći-	.
=13-	=13-	=13-	=13-	=13-	=13-	=13-	=13-	=13-	=13-	=13-	=13-
0D	-wy.	.	0D	-wy.	.	0A	-wy.	.	0d	-wy?	.
=	=	=	=	=	=	=	=	=	=	=	=
*-	*-	*-	*-	*-	*-	*-	*-	*-	*-	*-	*-
!!!RDF**kern: l = terminal long
!!!system-decoration: s1,s2,s3,s4
!!!ENC: Leszek Kubiak
!!!END: data 2020-02-03
!!!URL-scan: https://polona.pl/item/melodiae-na-psalterz-polski,Nzk3MTM4ODQ/47 Scan on Polona
!!!IIIF: https://polona.pl/iiif/item/Nzk3MTM4ODQ/manifest.json
